packages/axiom-components/src/Pictogram/svgs/individual.svg

<?xml version="1.0" encoding="UTF-8"?>
<svg width="19px" height="40px" viewBox="0 0 19 40" version="1.1" xmlns="http://www.w3.org/2000/svg" xmlns:xlink="http://www.w3.org/1999/xlink">
    <!-- Generator: sketchtool 43.2 (39069) - http://www.bohemiancoding.com/sketch -->
    <title>individual</title>
    <desc>Created with sketchtool.</desc>
    <defs></defs>
    <g id="Page-1" stroke="none" stroke-width="1" fill="none" fill-rule="evenodd">
        <g id="individual" fill="#000000">
            <path d="M16.1150162,10.9998 L18.6380162,20.4178 C18.8170162,21.0848 18.4210162,21.7698 17.7540162,21.9488 C17.0870162,22.1278 16.4020162,21.7318 16.2230162,21.0648 L13.7020162,11.6548 L12.7320162,11.9178 L16.5060162,25.9998 L13.5060162,25.9998 L13.5060162,38.2498 C13.5060162,39.2168 12.7220162,39.9998 11.7560162,39.9998 C10.7890162,39.9998 10.0060162,39.2168 10.0060162,38.2498 L10.0060162,25.9998 L9.00601623,25.9998 L9.00601623,38.2498 C9.00601623,39.2168 8.22201623,39.9998 7.25601623,39.9998 C6.28901623,39.9998 5.50601623,39.2168 5.50601623,38.2498 L5.50601623,25.9998 L2.50601623,25.9998 L6.27901623,11.9178 L5.31001623,11.6548 L2.78801623,21.0648 C2.60901623,21.7318 1.92401623,22.1278 1.25701623,21.9488 C0.590016234,21.7698 0.194016234,21.0848 0.373016234,20.4178 L2.89701623,10.9998 C3.52201623,8.6658 5.12301623,7.1018 7.59601623,6.9998 L11.4190162,7.0158 C13.8890162,7.1018 15.4890162,8.6658 16.1150162,10.9998 Z M9.50551623,6 C7.84851623,6 6.50551623,4.657 6.50551623,3 C6.50551623,1.343 7.84851623,0 9.50551623,0 C11.1625162,0 12.5055162,1.343 12.5055162,3 C12.5055162,4.657 11.1625162,6 9.50551623,6 Z" id="Female"></path>
        </g>
    </g>
</svg>

<svg height="40" viewBox="0 0 19 40" width="19" xmlns="http://www.w3.org/2000/svg"><path d="m16.1150162 10.9998 2.523 9.418c.179.667-.217 1.352-.884 1.531s-1.352-.217-1.531-.884l-2.521-9.41-.97.263 3.774 14.082h-3v12.25c0 .967-.784 1.75-1.75 1.75-.967 0-1.75-.783-1.75-1.75v-12.25h-.99999997v12.25c0 .967-.784 1.75-1.75 1.75-.967 0-1.75-.783-1.75-1.75v-12.25h-3l3.773-14.082-.969-.263-2.522 9.41c-.179.667-.864 1.063-1.531.884s-1.063-.864-.884-1.531l2.524-9.418c.625-2.334 2.226-3.898 4.699-4l3.82299997.016c2.47.086 4.07 1.65 4.696 3.984zm-6.60949997-4.9998c-1.657 0-3-1.343-3-3s1.343-3 3-3c1.65699997 0 2.99999997 1.343 2.99999997 3s-1.343 3-2.99999997 3z" fill-rule="evenodd"/></svg>
